X:1
T:Title
%%score { 1 | ( 2 3 ) }
L:1/8
M:4/4
K:Db
V:1 treble nm="Grand Piano"
V:2 bass 
V:3 bass 
V:1
 z4 z2[Q:1/4=100] FG | A2 B[Gc] [Fd]2 [Fc][FB] | [FA]4 F2 D[DE] | %3
 [DF]2 [DA][B,DG] [A,DF]2 [G,CE]2 | A6 FF | E2 EE E2 F=G | A4 [Ec]2 [Ec][Ec] | [Ee]2 [Fd]c c2 B2 | %8
[M:3/4] [CA]6 |[M:1/4] [GA]>[GA] |[M:4/4] [GA]2 [GB]2 [Gc]2 [Ge]2 | [Fd]4 [DFA]2 F>F | %12
 d2 d>B F2 =G2 |[M:3/4] [A,CGA]6 |[M:1/4] [CG]>[CG] |[M:4/4] F2 E2 D2 d2 | d4 E2 B>B | %17
 A2 d2 [=Gd]2 [_Ge]2 |[M:3/4] [Fd]6 |] %19
V:2
 z4 z2 [D,A,D][E,A,C] | [F,A,D]2 [G,D][E,A,] [D,A,]2 [D,D][D,D] | [D,D]4 [D,A,D]2 [B,,=G,][B,,G,] | %3
 [A,,A,]2 [A,,F,]A,, A,,2 A,,2 | [D,F,D]6 [D,A,D][D,A,D] | [E,A,C]2 CC [E,=G,D]2 [E,A,D][E,B,D] | %6
 [A,C]4 [A,,A,]2 [A,,A,][A,,A,] | [E,=G,]2 [E,A,][E,A,E] [E,G,E]2 [E,G,D]2 |[M:3/4] [A,,E,]6 | %9
[M:1/4] [A,,A,]>[A,,A,] |[M:4/4] [A,,A,]2 [A,,A,]2 [A,,A,]2 [A,,A,]2 | [D,A,]4 D,2 F,>F, | %12
 D2 D>B, F,2 =G,2 |[M:3/4] A,,6 |[M:1/4] [A,,A,]>[A,,A,] | %15
[M:4/4] [D,A,D]2 [E,A,C]2 [F,A,]2 [F,_CD]2 | [G,B,D]4 [G,B,D]2[K:treble] [G,DG]>[G,DG] | %17
 [A,DF]2 [A,DF]2[K:bass] [E,D]2 [A,C]2 |[M:3/4] [D,A,D]6 |] %19
V:3
 x8 | x8 | x8 | x8 | x8 | z2 [E,A,]2 z4 | x8 | x8 |[M:3/4] x6 |[M:1/4] x2 |[M:4/4] x8 | x8 | x8 | %13
[M:3/4] x6 |[M:1/4] x2 |[M:4/4] x8 | x6[K:treble] x2 | x4[K:bass] x4 |[M:3/4] x6 |] %19

